X:1085
T: Merry Pedlar
S: "Roche Collection of Traditional Irish Music" [III/35/111]
L: 1/8
M: 4/4
R: hornpipe
K: D
d/B/ | AFFE DFFE | DFFA BE Ed/B/ |
AFFE DFFF/A/ | Bc/d/ AF FE E :|
F | AA AF/A/ DF FE/D/ | AA AF/A/ BEEF |
AA AF/A/ DFFA | Bc/d/ AF FE E |]
